img/header__tel.svg

<svg width="28" height="28" viewBox="0 0 28 28" fill="none" xmlns="http://www.w3.org/2000/svg">
<path d="M13.6714 21.4701C12.6256 22.0976 11.1315 21.7689 10.504 20.7828L6.02198 13.5219C5.39449 12.5059 5.72317 11.1613 6.73911 10.5338L10.6535 8.14337L7.2172 2.55572L3.30285 4.97604C-0.521847 7.3366 -0.402325 13.5517 3.60166 20.0358C5.42437 23.0238 7.75504 25.3844 10.1156 26.6991C11.52 27.476 12.8646 27.8645 14.1495 27.8645C15.2252 27.8645 16.2411 27.5956 17.1375 27.0278L20.9025 24.6972L17.4662 19.1095L13.6714 21.4701ZM16.51 26.0418C14.4782 27.2968 12.2072 26.5497 10.6833 25.6832C8.50206 24.4581 6.32078 22.247 4.58771 19.4083C0.942295 13.492 0.643492 7.96409 3.90046 5.93222L6.82875 4.13939L9.0399 7.72504L6.11162 9.51787C4.55783 10.474 4.04986 12.5358 5.03592 14.1195L9.51799 21.3505C10.4742 22.9043 12.6853 23.4123 14.269 22.4262L17.0479 20.6932L19.259 24.2788L16.51 26.0418Z" fill="black"/>
<path d="M17.7053 10.982C18.5718 12.2968 18.781 13.9402 18.273 15.4641L19.3786 15.8226C20.0061 13.9701 19.7371 11.9681 18.6913 10.3545C17.5857 8.68122 15.7331 7.60552 13.7312 7.486L13.6714 8.65134C15.3148 8.7111 16.779 9.57763 17.7053 10.982Z" fill="black"/>
<path d="M14.508 3.60154L14.3885 4.76688C17.1076 5.06568 19.4981 6.55971 20.9921 8.8605C22.4264 11.0717 22.8447 13.7908 22.0977 16.3306L23.2331 16.6593C24.0399 13.7908 23.5917 10.7131 21.9781 8.23301C20.275 5.63341 17.5558 3.93022 14.508 3.60154Z" fill="black"/>
<path d="M24.8765 6.29078C22.6953 2.94417 19.1993 0.733012 15.255 0.165283L15.1056 1.33062C18.7212 1.83859 21.9184 3.87046 23.9204 6.91827C25.8626 9.90632 26.4602 13.6115 25.5339 17.0478L26.6694 17.3466C27.6255 13.6115 26.9981 9.57763 24.8765 6.29078Z" fill="black"/>
</svg>

<svg width="28" height="28" fill="none" xmlns="http://www.w3.org/2000/svg"><path d="M13.671 21.47c-1.045.628-2.54.299-3.167-.687l-4.482-7.261c-.628-1.016-.299-2.36.717-2.988l3.914-2.39-3.436-5.588-3.914 2.42c-3.825 2.36-3.705 8.576.299 15.06 1.822 2.988 4.153 5.348 6.514 6.663 1.404.777 2.749 1.165 4.034 1.165 1.075 0 2.091-.268 2.987-.836l3.765-2.33-3.436-5.588-3.795 2.36zm2.839 4.572c-2.032 1.255-4.303.508-5.827-.359-2.18-1.225-4.362-3.436-6.095-6.275C.942 13.492.643 7.964 3.9 5.932L6.83 4.14l2.21 3.586-2.927 1.793a3.336 3.336 0 00-1.076 4.601l4.482 7.232c.956 1.553 3.167 2.061 4.751 1.075l2.779-1.733 2.211 3.586-2.749 1.763zm1.195-15.06a5.156 5.156 0 01.568 4.482l1.106.359a6.307 6.307 0 00-.688-5.469 6.437 6.437 0 00-4.96-2.868l-.06 1.165c1.644.06 3.108.927 4.034 2.331z" fill="#000"/><path d="M14.508 3.602l-.12 1.165c2.72.299 5.11 1.793 6.604 4.093a9.03 9.03 0 011.106 7.47l1.135.33c.807-2.87.359-5.947-1.255-8.427-1.703-2.6-4.422-4.303-7.47-4.631z" fill="#000"/><path d="M24.877 6.29A13.794 13.794 0 0015.255.166l-.15 1.166a12.63 12.63 0 018.815 5.587 12.624 12.624 0 011.614 10.13l1.135.299A14.03 14.03 0 0024.876 6.29z" fill="#000"/></svg>
